public/icons/AddCommunityButton.svg

<svg width="72" height="72" viewBox="0 0 72 72" fill="none" xmlns="http://www.w3.org/2000/svg">
<g filter="url(#filter0_d_636_9778)">
<circle cx="36" cy="36" r="26" transform="rotate(90 36 36)" fill="#1F4172"/>
</g>
<path d="M35.2773 43.2217L43.2218 43.2217" stroke="white" stroke-width="2" stroke-linecap="round" stroke-linejoin="round"/>
<path d="M39.2497 27.9096C39.6008 27.5404 40.0771 27.333 40.5737 27.333C40.8197 27.333 41.0631 27.3839 41.2903 27.4829C41.5175 27.5818 41.7239 27.7268 41.8978 27.9096C42.0717 28.0924 42.2096 28.3094 42.3037 28.5483C42.3978 28.7871 42.4463 29.0431 42.4463 29.3016C42.4463 29.5602 42.3978 29.8161 42.3037 30.055C42.2096 30.2938 42.0717 30.5109 41.8978 30.6937L30.8639 42.2939L27.333 43.2219L28.2157 39.5098L39.2497 27.9096Z" stroke="white" stroke-width="2" stroke-linecap="round" stroke-linejoin="round"/>
<defs>
<filter id="filter0_d_636_9778" x="0" y="0" width="72" height="72" filterUnits="userSpaceOnUse" color-interpolation-filters="sRGB">
<feFlood flood-opacity="0" result="BackgroundImageFix"/>
<feColorMatrix in="SourceAlpha" type="matrix" values="0 0 0 0 0 0 0 0 0 0 0 0 0 0 0 0 0 0 127 0" result="hardAlpha"/>
<feOffset/>
<feGaussianBlur stdDeviation="5"/>
<feComposite in2="hardAlpha" operator="out"/>
<feColorMatrix type="matrix" values="0 0 0 0 0 0 0 0 0 0 0 0 0 0 0 0 0 0 0.2 0"/>
<feBlend mode="normal" in2="BackgroundImageFix" result="effect1_dropShadow_636_9778"/>
<feBlend mode="normal" in="SourceGraphic" in2="effect1_dropShadow_636_9778" result="shape"/>
</filter>
</defs>
</svg>

<svg width="72" height="72" fill="none" xmlns="http://www.w3.org/2000/svg"><g filter="url(#a)"><circle cx="36" cy="36" r="26" transform="rotate(90 36 36)" fill="#1F4172"/></g><path d="M35.277 43.222h7.945M39.25 27.91c.35-.37.827-.577 1.324-.577.246 0 .49.05.716.15.227.099.434.244.608.427.174.182.312.4.406.638a2.056 2.056 0 0 1 0 1.507 1.978 1.978 0 0 1-.406.639l-11.034 11.6-3.531.928.883-3.712 11.034-11.6Z" stroke="#fff" stroke-width="2" stroke-linecap="round" stroke-linejoin="round"/><defs><filter id="a" x="0" y="0" width="72" height="72" filterUnits="userSpaceOnUse" color-interpolation-filters="sRGB"><feFlood flood-opacity="0" result="BackgroundImageFix"/><feColorMatrix in="SourceAlpha" values="0 0 0 0 0 0 0 0 0 0 0 0 0 0 0 0 0 0 127 0" result="hardAlpha"/><feOffset/><feGaussianBlur stdDeviation="5"/><feComposite in2="hardAlpha" operator="out"/><feColorMatrix values="0 0 0 0 0 0 0 0 0 0 0 0 0 0 0 0 0 0 0.2 0"/><feBlend in2="BackgroundImageFix" result="effect1_dropShadow_636_9778"/><feBlend in="SourceGraphic" in2="effect1_dropShadow_636_9778" result="shape"/></filter></defs></svg>
